Newaita-dark/mimetypes/22/application-x-codeblocks.svg

<svg height="22" viewBox="0 0 22 22" width="22" xmlns="http://www.w3.org/2000/svg" xmlns:xlink="http://www.w3.org/1999/xlink"><linearGradient id="a"><stop offset="0" stop-opacity=".27451"/><stop offset="1" stop-opacity="0"/></linearGradient><linearGradient id="b" gradientUnits="userSpaceOnUse" x1="11.3699116" x2="11.3699116" xlink:href="#a" y1="19.27333715" y2="20.18293042919"/><linearGradient id="c"><stop offset="0" stop-opacity=".313726"/><stop offset=".222222" stop-opacity=".27451"/><stop offset="1" stop-opacity="0"/></linearGradient><radialGradient id="d" cx="450.908936" cy="189.579361" gradientTransform="matrix(.00000012 -.0537161 -.0966889 -.00000007 34.020641 43.721791)" gradientUnits="userSpaceOnUse" r="21.166656" xlink:href="#c"/><radialGradient id="e" cx="450.908936" cy="189.579361" gradientTransform="matrix(-.00000012 .0537161 .0966889 .00000007 -12.645221 -5.175142)" gradientUnits="userSpaceOnUse" r="21.166656" xlink:href="#c"/><radialGradient id="f" cx="450.908936" cy="189.579361" gradientTransform="matrix(-.00000012 -.0537161 .0966889 -.00000007 -12.645221 43.721791)" gradientUnits="userSpaceOnUse" r="21.166656" xlink:href="#c"/><radialGradient id="g" cx="450.908936" cy="189.579361" gradientTransform="matrix(.00000012 .0537161 -.0966889 .00000007 34.02064 -5.175142)" gradientUnits="userSpaceOnUse" r="21.166656" xlink:href="#c"/><linearGradient id="h" gradientUnits="userSpaceOnUse" x1="10.687706" x2="10.687706" y1="19.27332401286" y2="1.99107548985"><stop offset="0" stop-color="#9fa8da"/><stop offset="1" stop-color="#c5cae9"/></linearGradient><linearGradient id="i"><stop offset="0" stop-color="#5c6bc0"/><stop offset="1" stop-color="#7986cb"/></linearGradient><linearGradient id="j" gradientUnits="userSpaceOnUse" x1="10.687706" x2="10.687706" xlink:href="#i" y1="19.27332401286" y2="1.99107548985"/><linearGradient id="k" gradientTransform="matrix(.0205522 0 0 .0752024 10.341665 -11.361824)" gradientUnits="userSpaceOnUse" x1="249.189407" x2="249.189423" xlink:href="#a" y1="236.523788" y2="254.666687"/><linearGradient id="l" gradientUnits="userSpaceOnUse" x1="14.55348834162" x2="14.55348834162" xlink:href="#i" y1="19.27333515" y2="1.99106697081"/><path d="m5.457031 19.273438h10.460938v.910156h-10.460938zm0 0" fill="url(#b)"/><path d="m15.917969 19.273438h1.820312v-.910157h-1.820312zm0 0" fill="url(#d)"/><path d="m5.457031 19.273438h-1.820312v.910156h1.820312zm0 0" fill="url(#e)"/><path d="m5.457031 19.273438h-1.820312v-.910157h1.820312zm0 0" fill="url(#f)"/><path d="m15.917969 19.273438h1.820312v.910156h-1.820312zm0 0" fill="url(#g)"/><path d="m12.746094 1.992188h-8.199219c-.503906 0-.910156.40625-.910156.910156v15.460937c0 .503907.40625.910157.910156.910157h12.28125c.503906 0 .910156-.40625.910156-.910157v-11.382812zm0 0" fill="url(#h)"/><path d="m7.503906 7.886719c-.261718 0-.472656.210937-.472656.472656v1.816406c0 .230469.167969.429688.394531.46875l2.617188.433594-2.617188.4375c-.226562.035156-.394531.234375-.394531.464844v1.820312c0 .257813.210938.46875.472656.46875h1.820313c.191406 0 .367187-.117187.4375-.296875l.910156-2.273437c.003906-.015625.011719-.03125.015625-.050781.003906.019531.011719.035156.015625.050781l.910156 2.273437c.074219.179688.246094.296875.4375.296875h1.820313c.261718 0 .472656-.210937.472656-.46875v-1.820312c0-.230469-.167969-.429688-.394531-.464844l-2.617188-.4375 2.617188-.433594c.226562-.039062.394531-.238281.394531-.46875v-1.816406c0-.261719-.210938-.472656-.472656-.472656h-1.820313c-.191406 0-.363281.117187-.4375.296875l-.910156 2.273437c-.003906.015625-.011719.035157-.015625.050781-.003906-.015624-.011719-.035156-.015625-.050781l-.910156-2.273437c-.070313-.179688-.246094-.296875-.4375-.296875zm.472656.941406h1.027344l.480469 1.199219-1.507813-.25zm4.394532 0h1.027344v.949219l-1.507813.25zm-2.886719 3.300781-.480469 1.199219h-1.027344v-.949219zm2.40625 0 1.507813.25v.949219h-1.027344zm0 0" fill="url(#j)"/><path d="m12.734375 6.199219h4.320313l.683593.679687v.910156h-5.003906zm0 0" fill="url(#k)"/><path d="m3.636719 18.011719v.351562c0 .503907.40625.910157.910156.910157h12.28125c.503906 0 .910156-.40625.910156-.910157v-.351562c0 .503906-.40625.910156-.910156.910156h-12.28125c-.503906 0-.910156-.40625-.910156-.910156zm0 0" fill-opacity=".235294"/><path d="m4.546875 1.992188c-.503906 0-.910156.40625-.910156.910156v.339844c0-.503907.40625-.910157.910156-.910157h8.199219l4.992187 4.988281v-.339843l-4.992187-4.988281zm0 0" fill="#fff" fill-opacity=".392157"/><path d="m17.738281 6.980469-4.992187-4.988281v4.078124c0 .503907.40625.910157.910156.910157zm0 0" fill="url(#l)"/><path d="m12.746094 5.855469v.214843c0 .503907.40625.910157.910156.910157h4.082031l-.214843-.214844h-3.867188c-.503906 0-.910156-.40625-.910156-.910156zm0 0" fill-opacity=".235294"/><path d="m12.746094 1.992188v.339843l4.648437 4.648438h.34375zm0 0" fill="#fff" fill-opacity=".392157"/><path d="m12.746094 1.925781c-.035156 0-.0625.03125-.0625.066407v4.078124c0 .539063.433594.972657.972656.972657h4.082031c.023438 0 .046875-.015625.058594-.039063.007813-.023437.003906-.050781-.015625-.070312l-4.988281-4.988282c-.011719-.011718-.027344-.019531-.046875-.019531zm.066406.222657 4.769531 4.765624h-3.925781c-.46875 0-.84375-.375-.84375-.84375zm0 0" fill="#212121"/><path d="m4.546875 1.925781c-.539063 0-.972656.4375-.972656.976563v15.460937c0 .539063.433593.972657.972656.972657h12.28125c.539063 0 .972656-.433594.972656-.972657v-11.382812c0-.015625-.007812-.035157-.019531-.046875l-4.988281-4.988282c-.011719-.011718-.027344-.019531-.046875-.019531zm0 .128907h8.175781l4.949219 4.953124v11.355469c0 .46875-.375.84375-.84375.84375h-12.28125c-.46875 0-.84375-.375-.84375-.84375v-15.460937c0-.472656.375-.847656.84375-.847656zm0 0" fill="#212121"/><path d="m659.979959 693.6489c-23.018562 0-41.570836 18.552274-41.570836 41.570836v159.75569c0 20.270077 14.773107 37.791668 34.699623 41.227275l230.185619 38.135229-230.185619 38.47879c-19.926516 3.092046-34.699623 20.613637-34.699623 40.883714v160.099251c0 22.675001 18.552274 41.227275 41.570836 41.227275h160.099251c16.83447 0 32.294698-10.306819 38.47879-26.110608l80.049625-199.952283c.343561-1.374242 1.030682-2.748485 1.374243-4.466288.34356 1.717803 1.030681 3.092046 1.374242 4.466288l80.049626 199.952283c6.527651 15.803789 21.644319 26.110608 38.478789 26.110608h160.099251c23.018562 0 41.570836-18.552274 41.570836-41.227275v-160.099251c0-20.270077-14.773107-37.791668-34.699623-40.883714l-230.185618-38.47879 230.185618-38.135229c19.926516-3.435607 34.699623-20.957198 34.699623-41.227275v-159.75569c0-23.018562-18.552274-41.570836-41.570836-41.570836h-160.099251c-16.83447 0-31.951138 10.306819-38.478789 26.110608l-80.049626 199.952283c-.343561 1.374242-1.030682 3.092045-1.374242 4.466288-.343561-1.374243-1.030682-3.092046-1.374243-4.466288l-80.049625-199.952283c-6.184092-15.803789-21.64432-26.110608-38.47879-26.110608zm41.570835 82.798111h90.356445l42.257956 105.473111-132.614401-21.98788zm386.505703 0h90.356444v83.485231l-132.614401 21.98788zm-253.891302 290.308727-42.257956 105.473111h-90.356445v-83.485231zm211.633345 0 132.614401 21.98788v83.485231h-90.356444zm0 0" fill="none" stroke="#212121" stroke-linecap="round" stroke-linejoin="round" stroke-width="11.338583" transform="scale(.0113699)"/></svg>

<svg xmlns="http://www.w3.org/2000/svg" xmlns:xlink="http://www.w3.org/1999/xlink" width="22px" height="22px" viewBox="0 0 22 22" version="1.1">
<defs>
<linearGradient id="linear0" gradientUnits="userSpaceOnUse" x1="33.076088" y1="56.067871" x2="33.076088" y2="58.713959" gradientTransform="matrix(0.34375,0,0,0.34375,0,0)">
<stop offset="0" style="stop-color:rgb(0%,0%,0%);stop-opacity:0.27451;"/>
<stop offset="1" style="stop-color:rgb(0%,0%,0%);stop-opacity:0;"/>
</linearGradient>
<radialGradient id="radial0" gradientUnits="userSpaceOnUse" cx="450.908936" cy="189.579361" fx="450.908936" fy="189.579361" r="21.166656" gradientTransform="matrix(0.000000120312,-0.0537161,-0.096689,-0.00000006875,34.020642,43.721792)">
<stop offset="0" style="stop-color:rgb(0%,0%,0%);stop-opacity:0.313726;"/>
<stop offset="0.222222" style="stop-color:rgb(0%,0%,0%);stop-opacity:0.27451;"/>
<stop offset="1" style="stop-color:rgb(0%,0%,0%);stop-opacity:0;"/>
</radialGradient>
<radialGradient id="radial1" gradientUnits="userSpaceOnUse" cx="450.908936" cy="189.579361" fx="450.908936" fy="189.579361" r="21.166656" gradientTransform="matrix(-0.000000120312,0.0537161,0.096689,0.00000006875,-12.645221,-5.175142)">
<stop offset="0" style="stop-color:rgb(0%,0%,0%);stop-opacity:0.313726;"/>
<stop offset="0.222222" style="stop-color:rgb(0%,0%,0%);stop-opacity:0.27451;"/>
<stop offset="1" style="stop-color:rgb(0%,0%,0%);stop-opacity:0;"/>
</radialGradient>
<radialGradient id="radial2" gradientUnits="userSpaceOnUse" cx="450.908936" cy="189.579361" fx="450.908936" fy="189.579361" r="21.166656" gradientTransform="matrix(-0.000000120312,-0.0537161,0.096689,-0.00000006875,-12.645221,43.721792)">
<stop offset="0" style="stop-color:rgb(0%,0%,0%);stop-opacity:0.313726;"/>
<stop offset="0.222222" style="stop-color:rgb(0%,0%,0%);stop-opacity:0.27451;"/>
<stop offset="1" style="stop-color:rgb(0%,0%,0%);stop-opacity:0;"/>
</radialGradient>
<radialGradient id="radial3" gradientUnits="userSpaceOnUse" cx="450.908936" cy="189.579361" fx="450.908936" fy="189.579361" r="21.166656" gradientTransform="matrix(0.000000120312,0.0537161,-0.096689,0.00000006875,34.020639,-5.175142)">
<stop offset="0" style="stop-color:rgb(0%,0%,0%);stop-opacity:0.313726;"/>
<stop offset="0.222222" style="stop-color:rgb(0%,0%,0%);stop-opacity:0.27451;"/>
<stop offset="1" style="stop-color:rgb(0%,0%,0%);stop-opacity:0;"/>
</radialGradient>
<linearGradient id="linear1" gradientUnits="userSpaceOnUse" x1="31.091534" y1="56.067898" x2="31.091534" y2="5.792224" gradientTransform="matrix(0.34375,0,0,0.34375,0,0)">
<stop offset="0" style="stop-color:rgb(62.352943%,65.882355%,85.490197%);stop-opacity:1;"/>
<stop offset="1" style="stop-color:rgb(77.254903%,79.215688%,91.37255%);stop-opacity:1;"/>
</linearGradient>
<linearGradient id="linear2" gradientUnits="userSpaceOnUse" x1="31.091534" y1="56.067898" x2="31.091534" y2="5.792224" gradientTransform="matrix(0.34375,0,0,0.34375,0,0)">
<stop offset="0" style="stop-color:rgb(36.078432%,41.960785%,75.294119%);stop-opacity:1;"/>
<stop offset="1" style="stop-color:rgb(47.450981%,52.549022%,79.607844%);stop-opacity:1;"/>
</linearGradient>
<linearGradient id="linear3" gradientUnits="userSpaceOnUse" x1="249.189407" y1="236.523788" x2="249.189423" y2="254.666687" gradientTransform="matrix(0.0205522,0,0,0.0752025,10.341665,-11.361824)">
<stop offset="0" style="stop-color:rgb(0%,0%,0%);stop-opacity:0.27451;"/>
<stop offset="1" style="stop-color:rgb(0%,0%,0%);stop-opacity:0;"/>
</linearGradient>
<linearGradient id="linear4" gradientUnits="userSpaceOnUse" x1="42.337395" y1="56.067867" x2="42.337395" y2="5.792208" gradientTransform="matrix(0.34375,0,0,0.34375,0,0)">
<stop offset="0" style="stop-color:rgb(36.078432%,41.960785%,75.294119%);stop-opacity:1;"/>
<stop offset="1" style="stop-color:rgb(47.450981%,52.549022%,79.607844%);stop-opacity:1;"/>
</linearGradient>
</defs>
<g id="surface1">
<path style=" stroke:none;fill-rule:nonzero;fill:url(#linear0);" d="M 5.457031 19.273438 L 15.917969 19.273438 L 15.917969 20.183594 L 5.457031 20.183594 Z M 5.457031 19.273438 "/>
<path style=" stroke:none;fill-rule:nonzero;fill:url(#radial0);" d="M 15.917969 19.273438 L 17.738281 19.273438 L 17.738281 18.363281 L 15.917969 18.363281 Z M 15.917969 19.273438 "/>
<path style=" stroke:none;fill-rule:nonzero;fill:url(#radial1);" d="M 5.457031 19.273438 L 3.640625 19.273438 L 3.640625 20.183594 L 5.457031 20.183594 Z M 5.457031 19.273438 "/>
<path style=" stroke:none;fill-rule:nonzero;fill:url(#radial2);" d="M 5.457031 19.273438 L 3.640625 19.273438 L 3.640625 18.363281 L 5.457031 18.363281 Z M 5.457031 19.273438 "/>
<path style=" stroke:none;fill-rule:nonzero;fill:url(#radial3);" d="M 15.917969 19.273438 L 17.738281 19.273438 L 17.738281 20.183594 L 15.917969 20.183594 Z M 15.917969 19.273438 "/>
<path style=" stroke:none;fill-rule:nonzero;fill:url(#linear1);" d="M 12.75 1.992188 L 4.546875 1.992188 C 4.042969 1.992188 3.640625 2.398438 3.640625 2.898438 L 3.640625 18.363281 C 3.640625 18.867188 4.042969 19.273438 4.546875 19.273438 L 16.828125 19.273438 C 17.332031 19.273438 17.738281 18.867188 17.738281 18.363281 L 17.738281 6.980469 Z M 12.75 1.992188 "/>
<path style=" stroke:none;fill-rule:nonzero;fill:url(#linear2);" d="M 7.503906 7.886719 C 7.246094 7.886719 7.03125 8.097656 7.03125 8.359375 L 7.03125 10.175781 C 7.03125 10.40625 7.199219 10.605469 7.425781 10.644531 L 10.042969 11.078125 L 7.425781 11.515625 C 7.199219 11.550781 7.03125 11.75 7.03125 11.980469 L 7.03125 13.796875 C 7.03125 14.058594 7.246094 14.269531 7.503906 14.269531 L 9.324219 14.269531 C 9.515625 14.269531 9.691406 14.152344 9.761719 13.972656 L 10.671875 11.699219 C 10.679688 11.683594 10.683594 11.667969 10.6875 11.648438 C 10.691406 11.667969 10.699219 11.683594 10.703125 11.699219 L 11.613281 13.972656 C 11.6875 14.152344 11.859375 14.269531 12.054688 14.269531 L 13.871094 14.269531 C 14.132812 14.269531 14.34375 14.058594 14.34375 13.796875 L 14.34375 11.980469 C 14.34375 11.75 14.175781 11.550781 13.949219 11.515625 L 11.332031 11.078125 L 13.949219 10.644531 C 14.175781 10.605469 14.34375 10.40625 14.34375 10.175781 L 14.34375 8.359375 C 14.34375 8.097656 14.132812 7.886719 13.871094 7.886719 L 12.054688 7.886719 C 11.859375 7.886719 11.6875 8.003906 11.613281 8.183594 L 10.703125 10.457031 C 10.699219 10.472656 10.691406 10.488281 10.6875 10.507812 C 10.683594 10.488281 10.679688 10.472656 10.671875 10.457031 L 9.761719 8.183594 C 9.6875 8.003906 9.515625 7.886719 9.324219 7.886719 Z M 7.976562 8.828125 L 9.003906 8.828125 L 9.484375 10.027344 L 7.976562 9.777344 Z M 12.371094 8.828125 L 13.398438 8.828125 L 13.398438 9.777344 L 11.890625 10.027344 Z M 9.484375 12.128906 L 9.003906 13.328125 L 7.976562 13.328125 L 7.976562 12.378906 Z M 11.890625 12.128906 L 13.398438 12.378906 L 13.398438 13.328125 L 12.371094 13.328125 Z M 11.890625 12.128906 "/>
<path style=" stroke:none;fill-rule:nonzero;fill:url(#linear3);" d="M 12.734375 6.199219 L 17.054688 6.199219 L 17.738281 6.878906 L 17.738281 7.789062 L 12.734375 7.789062 Z M 12.734375 6.199219 "/>
<path style=" stroke:none;fill-rule:nonzero;fill:rgb(0%,0%,0%);fill-opacity:0.235294;" d="M 3.640625 18.011719 L 3.640625 18.363281 C 3.640625 18.867188 4.042969 19.273438 4.546875 19.273438 L 16.828125 19.273438 C 17.332031 19.273438 17.738281 18.867188 17.738281 18.363281 L 17.738281 18.011719 C 17.738281 18.515625 17.332031 18.917969 16.828125 18.917969 L 4.546875 18.917969 C 4.042969 18.917969 3.640625 18.515625 3.640625 18.011719 Z M 3.640625 18.011719 "/>
<path style=" stroke:none;fill-rule:nonzero;fill:rgb(100%,100%,100%);fill-opacity:0.392157;" d="M 4.546875 1.992188 C 4.042969 1.992188 3.640625 2.398438 3.640625 2.898438 L 3.640625 3.242188 C 3.640625 2.738281 4.042969 2.332031 4.546875 2.332031 L 12.75 2.332031 L 17.738281 7.320312 L 17.738281 6.980469 L 12.75 1.992188 Z M 4.546875 1.992188 "/>
<path style=" stroke:none;fill-rule:nonzero;fill:url(#linear4);" d="M 17.738281 6.980469 L 12.75 1.992188 L 12.75 6.070312 C 12.75 6.574219 13.152344 6.980469 13.65625 6.980469 Z M 17.738281 6.980469 "/>
<path style=" stroke:none;fill-rule:nonzero;fill:rgb(0%,0%,0%);fill-opacity:0.235294;" d="M 12.75 5.855469 L 12.75 6.070312 C 12.75 6.574219 13.152344 6.980469 13.65625 6.980469 L 17.738281 6.980469 L 17.523438 6.765625 L 13.65625 6.765625 C 13.152344 6.765625 12.75 6.359375 12.75 5.855469 Z M 12.75 5.855469 "/>
<path style=" stroke:none;fill-rule:nonzero;fill:rgb(100%,100%,100%);fill-opacity:0.392157;" d="M 12.75 1.992188 L 12.75 2.332031 L 17.394531 6.980469 L 17.738281 6.980469 Z M 12.75 1.992188 "/>
<path style=" stroke:none;fill-rule:nonzero;fill:rgb(12.941177%,12.941177%,12.941177%);fill-opacity:1;" d="M 12.746094 1.925781 C 12.710938 1.925781 12.683594 1.957031 12.683594 1.992188 L 12.683594 6.070312 C 12.683594 6.609375 13.117188 7.046875 13.65625 7.046875 L 17.738281 7.046875 C 17.761719 7.042969 17.785156 7.03125 17.796875 7.003906 C 17.804688 6.980469 17.800781 6.953125 17.78125 6.933594 L 12.792969 1.945312 C 12.78125 1.933594 12.765625 1.925781 12.746094 1.925781 Z M 12.8125 2.148438 L 17.582031 6.914062 L 13.65625 6.914062 C 13.1875 6.914062 12.8125 6.539062 12.8125 6.070312 Z M 12.8125 2.148438 "/>
<path style=" stroke:none;fill-rule:nonzero;fill:rgb(12.941177%,12.941177%,12.941177%);fill-opacity:1;" d="M 4.546875 1.925781 C 4.007812 1.925781 3.574219 2.363281 3.574219 2.898438 L 3.574219 18.363281 C 3.574219 18.902344 4.007812 19.335938 4.546875 19.335938 L 16.828125 19.335938 C 17.367188 19.335938 17.800781 18.902344 17.800781 18.363281 L 17.800781 6.980469 C 17.800781 6.964844 17.792969 6.949219 17.78125 6.933594 L 12.792969 1.945312 C 12.78125 1.933594 12.765625 1.925781 12.75 1.925781 Z M 4.546875 2.054688 L 12.722656 2.054688 L 17.671875 7.007812 L 17.671875 18.363281 C 17.671875 18.832031 17.296875 19.207031 16.828125 19.207031 L 4.546875 19.207031 C 4.078125 19.207031 3.703125 18.832031 3.703125 18.363281 L 3.703125 2.898438 C 3.703125 2.433594 4.078125 2.054688 4.546875 2.054688 Z M 4.546875 2.054688 "/>
<path style="fill:none;stroke-width:11.338583;stroke-linecap:round;stroke-linejoin:round;stroke:rgb(12.941177%,12.941177%,12.941177%);stroke-opacity:1;stroke-miterlimit:4;" d="M 659.979424 693.648338 C 637.304441 693.648338 618.408622 712.200596 618.408622 735.21914 L 618.408622 894.9747 C 618.408622 915.244761 633.181717 932.766338 653.108217 936.201942 L 883.293648 974.33714 L 653.108217 1012.815899 C 633.181717 1015.907942 618.408622 1033.429519 618.408622 1053.69958 L 618.408622 1213.455141 C 618.408622 1236.473684 637.304441 1255.025942 659.979424 1255.025942 L 820.078545 1255.025942 C 836.913002 1255.025942 852.373217 1244.719132 858.557304 1228.915356 L 938.606864 1028.963235 C 939.293985 1027.588994 939.637545 1026.214752 939.981105 1024.49695 C 940.324666 1026.214752 941.011787 1027.588994 941.355347 1028.963235 L 1021.404907 1228.915356 C 1027.932554 1244.719132 1043.049209 1255.025942 1060.227226 1255.025942 L 1219.982787 1255.025942 C 1243.00133 1255.025942 1261.553589 1236.473684 1261.553589 1213.455141 L 1261.553589 1053.69958 C 1261.553589 1033.429519 1246.780494 1015.907942 1226.853994 1012.815899 L 996.668562 974.33714 L 1226.853994 936.201942 C 1246.780494 932.766338 1261.553589 915.244761 1261.553589 894.9747 L 1261.553589 735.21914 C 1261.553589 712.200596 1243.00133 693.648338 1219.982787 693.648338 L 1060.227226 693.648338 C 1043.049209 693.648338 1027.932554 703.955148 1021.404907 719.758924 L 941.355347 919.711045 C 941.011787 921.085286 940.324666 922.459528 939.981105 924.17733 C 939.637545 922.459528 939.293985 921.085286 938.606864 919.711045 L 858.557304 719.758924 C 852.373217 703.955148 836.913002 693.648338 820.078545 693.648338 Z M 701.550226 776.789941 L 791.906597 776.789941 L 834.164519 881.919407 L 701.550226 859.931545 Z M 1088.055614 776.789941 L 1178.411985 776.789941 L 1178.411985 859.931545 L 1045.797692 881.919407 Z M 834.164519 1066.754873 L 791.906597 1172.227899 L 701.550226 1172.227899 L 701.550226 1088.742735 Z M 1045.797692 1066.754873 L 1178.411985 1088.742735 L 1178.411985 1172.227899 L 1088.055614 1172.227899 Z M 1045.797692 1066.754873 " transform="matrix(0.0113699,0,0,0.0113699,0,0)"/>
</g>
</svg>
